X:1
T:Duke of Atholl's Jig #1
C:Ron Gonnella
R:Jig
Q:180
K:D
M:6/8
L:1/16
A2|:d4d2 e2f2g2|a4a2 f2e2d2|g2f2e2 f2d2A2|e6 e4A2|d4d2 e2f2g2|a4a2 f2e2d2|e6 c2A2c2|1d6 d4A2:|2d6 d6|
c4A2 A2c2e2|f4A2 A2d2f2|g2a2g2 f2e2d2|e6 e6|c4A2 A2c2e2|f4A2 A2d2f2|g4e2 c2A2c2|d6 d6|
c4A2 A2c2e2|f4A2 A2d2f2|g2a2g2 f2e2d2|e6 e4A2|d2c2d2 e2f2g2|a4a2 f2e2d2|e6 c2A2c2|d6 d6||
